components/ui-node-icon/src/sortByAscending/sortByAscending.small.svg

<svg width="16" height="16" viewBox="0 0 16 16" fill="none" xmlns="http://www.w3.org/2000/svg">
  <path fill-rule="evenodd" clip-rule="evenodd" d="M1.5 3C1.22386 3 1 3.22386 1 3.5C1 3.77614 1.22386 4 1.5 4H3.5C3.77614 4 4 3.77614 4 3.5C4 3.22386 3.77614 3 3.5 3H1.5ZM1 6.5C1 6.22386 1.22386 6 1.5 6H5.5C5.77614 6 6 6.22386 6 6.5C6 6.77614 5.77614 7 5.5 7H1.5C1.22386 7 1 6.77614 1 6.5ZM1.5 9C1.22386 9 1 9.22386 1 9.5C1 9.77614 1.22386 10 1.5 10H8.5C8.77614 10 9 9.77614 9 9.5C9 9.22386 8.77614 9 8.5 9H1.5ZM1.5 12C1.22386 12 1 12.2239 1 12.5C1 12.7761 1.22386 13 1.5 13H13.5C13.7761 13 14 12.7761 14 12.5C14 12.2239 13.7761 12 13.5 12H1.5Z" fill="currentColor"/>
</svg>

<svg xmlns="http://www.w3.org/2000/svg" width="16" height="16" fill="none" viewBox="0 0 16 16">
  <path fill="currentColor" fill-rule="evenodd" d="M1.5 3a.5.5 0 0 0 0 1h2a.5.5 0 0 0 0-1h-2ZM1 6.5a.5.5 0 0 1 .5-.5h4a.5.5 0 0 1 0 1h-4a.5.5 0 0 1-.5-.5ZM1.5 9a.5.5 0 0 0 0 1h7a.5.5 0 0 0 0-1h-7Zm0 3a.5.5 0 0 0 0 1h12a.5.5 0 0 0 0-1h-12Z" clip-rule="evenodd"/>
</svg>
